docs/img/svgicons/media/b17.svg

<svg width="442" height="244" viewBox="0 0 442 244" fill="none" xmlns="http://www.w3.org/2000/svg">
<path fill-rule="evenodd" clip-rule="evenodd" d="M67.3843 0H0.535156V153.198V155.981H0.578287C2.09453 204.843 43.396 244.001 94.1239 244.001C145.812 244.001 187.713 203.347 187.713 153.198C187.713 103.049 145.812 62.3945 94.1239 62.3945C88.0278 62.3945 82.0678 62.96 76.2966 64.0399V137.37C80.6596 133.69 86.2966 131.471 92.4518 131.471C106.297 131.471 117.52 142.695 117.52 156.54C117.52 170.385 106.297 181.608 92.4518 181.608C78.7921 181.608 67.6842 170.683 67.3893 157.094H67.3833V156.54V155.981H67.3843V0ZM262.362 0H178.801V77.9825C196.171 98.3957 206.653 124.851 206.653 153.755C206.653 182.658 196.171 209.114 178.801 229.527V243.999H262.362V0ZM441.74 0H275.732V70.1916H332.55L276.843 212.802V212.803V240.656H355.946L355.947 240.656V240.656L416.668 70.1916H416.672L441.74 0Z" fill="#731C00"/>
</svg>

<svg width="442" height="244" fill="none" xmlns="http://www.w3.org/2000/svg"><path fill-rule="evenodd" clip-rule="evenodd" d="M67.384 0H.535v155.981h.043c1.517 48.862 42.818 88.02 93.546 88.02 51.688 0 93.589-40.654 93.589-90.803 0-50.149-41.901-90.804-93.59-90.804a96.87 96.87 0 00-17.826 1.646v73.33c4.363-3.68 10-5.899 16.155-5.899 13.845 0 25.068 11.224 25.068 25.069 0 13.845-11.223 25.068-25.068 25.068-13.66 0-24.768-10.925-25.063-24.514h-.006v-1.113h.001V0zm194.978 0h-83.561v77.983c17.37 20.413 27.852 46.868 27.852 75.772 0 28.903-10.482 55.359-27.852 75.772v14.472h83.561V0zM441.74 0H275.732v70.192h56.818l-55.707 142.61v27.854h79.104l60.721-170.464h.004L441.74 0z" fill="#731C00"/></svg>
